X:1
T:Stonypath, 86.86.86.86.88
T:Charles MacPherson, 1916
T:Stonypath, 86.86.86.86.88
T:Public Domain
C:Charles MacPherson, 1916
Z:Public Domain
%%score ( 1 2 ) ( 3 4 )
L:1/8
M:4/4
K:G
V:1 treble 
V:2 treble 
V:3 bass 
V:4 bass 
V:1
 [B,D]2 | [CE]2 (B,C) [DG]2 [CF]2 | [DG]2 [Ec]2 [Dc]2 [GB]2 | [EA]2 [FB]2 G2 (AG) | [DF]6 [DA]2 | %5
 [DB]2 [Fd]2 [Gd]2 [Ac]2 | G2 z A [EG]2 [DF]2 | [DE]2 [CG]2 [A,G]2 [DF]2 | [DG]6 D2 | %9
 [CE]2 [B,G]2 [Cc]2 [DA]2 | [B,B]2 (AG) [^CA]2 [^DF]2 | [EG]3 [^DA] [EB]2 [EG]2 | [^DF]6 F2 | %13
 [EG]2 [Dd]2 [Ed]2 [Fc]2 | G2 z A [EG]2 (FE) | [DA]2 [DB]2 (GF) [^CE]2 | D6 [B,D]2 | %17
 [CE]2 (B,C) [DG]2 [CF]2 | [DG]2 [Ec]2 [Ac]2 [GB]2 | [Ee]4 (d2 B2) | (G2 F2) (E2 F2) | %21
 [GB]4 (G2 F2) | [DG]6 |] %23
V:2
 x2 | x2 G2 x4 | x8 | x4 G2 E2 | x8 | x8 | B3 F2 x3 | x8 | x6 D2 | x8 | x2 E2 x4 | x8 | x6 F2 | %13
 x8 | B3 (F2 x ^C2) | x4 B,2 x2 | D6 x2 | x2 G2 x4 | x8 | x4 F4 | G4 c4 | x4 A4 | x6 |] %23
V:3
 [G,,G,]2 | [C,G,]2 [E,G,]2 [D,A,]2 [A,C]2 | B,2 [E,G,]2 [F,A,]2 [G,D]2 | %3
 [C,E]2 [D,D]2 [E,B,]2 [A,,C]2 | [D,A,]6 [F,A,]2 | G,2 [D,A,]2 [E,G,]2 [F,D]2 | %6
 G,2 z C [E,B,]2 [B,,D]2 | [C,G,]2 [E,G,]2 [D,A,]2 (B,C) | [G,,B,]6 [B,,G,]2 | %9
 [C,G,]2 [E,G,]2 [A,,E,]2 [D,F,]2 | G,2 [E,B,]2 [F,A,]2 [B,,B,]2 | [E,B,]3 [F,A,] G,2 [E,B,]2 | %12
 [B,,B,]6 [^D,B,]2 | [E,B,]2 [F,A,]2 [G,B,]2 [A,C]2 | G,2 z C [E,B,]2 (F,G,) | %15
 [F,A,]2 [B,,F,]2 [E,G,]2 (A,G,) | [D,F,]6 [G,,G,]2 | [B,,G,]2 [E,G,]2 [D,A,]2 [A,C]2 | %18
 B,2 [E,G,]2 [F,D]2 [G,D]2 | C4 [B,D]4 | (E2 D2) (A,2 A,,2) | [B,,D]2 [C,E]2 (A,B, C2) | %22
 [G,,B,]6 |] %23
V:4
 x2 | x8 | B,2 x6 | x8 | x8 | G,2 x6 | D3 D,2 x3 | x6 D,2 | x8 | x8 | G,2 x6 | x4 G,2 x2 | x8 | %13
 x8 | D3 (D,2 x A,2) | x6 A,,2 | x8 | x8 | B,2 x6 | C4 x4 | E,4 C4 | x4 D,4 | x6 |] %23

